X: 4050
M: C
L: 1/8
K: D
|:\
g>ab>g a>fd>f |[1 g>fe>d (3cBA (3GFE :|[2 g<B c>A d3 f ||
|:\
a>b a<f d>e f<d | g>a b<g e3 f |\
a>b a<f d>e f<d |[1 B<e g>f e3 f :|[2 (3cBA (3gfe | d3 z |]


